X: 5
T: Tam Lin
R: reel
M: 4/4
L: 1/8
K: Dmin
A
BB
|B,DFD B,DFD|CEGE CEGE|FAGE FEDD|
A,DFD A,DFD|B,DFD B,DFD|CEGE CEGE|FDEC D3A:|
|:d^cdA FDD2|d^cdA FDD2|cEEE cEdE|cEEE A=BcA|
d^cdA FDD2|d^cdA FDD2|B,DFD CEGE|FDEC D3:|